X:1
T:Pascal’s Wager, 76.76 D
T:Pascal’s Wager, 76.76 D
T:Samuel Prowse Warren, 1886
T:Public Domain Courtesy of the Cyber Hymnal™
C:Samuel Prowse Warren, 1886
Z:Public Domain
Z:Courtesy of the Cyber Hymnal™
%%score ( 1 2 ) ( 3 4 )
L:1/8
Q:1/4=110
M:4/4
K:C
V:1 treble 
V:2 treble 
V:3 bass 
V:4 bass 
V:1
 G2 | c2 G2 E2 F2 | [CA]4 [CG]2 [EG]2 |!<(! [FA]3 [FA]!<)! [FB]2 [FG]2 | [Ec]6 G2 | %5
 [Ec]2 [EB]2 [EA]2 [EG]2 | ^F2 A2 [Dd]2 [Ec]2 | [^FB]2 [FA]2 [FB]2 [FA]2 | G6 [CG]2 | %9
 [B,G]2 [CA]2 [DG]2 [Fc]2 | [FB]3 [FA] [FG]2 [DG]2 x | [Cc]2 [CG]2 [CE]2 [DF][EG] | [FA]6 [CA]2 | %13
 [DB]2 [B,G]2 [Cc]2 [CE]2 | D3 [^CE] [DF]2 [DG]2 |!ff! G2 [Ec]2 [Fc]2 [FB]2 | .!fermata![Ec]4 x2 |] %17
V:2
 G2 | c2 G2 E2 F2 | x8 | x8 | x6 G2 | x8 | D4 x4 | x8 | G6 x2 | x8 | x9 | x8 | x8 | x8 | D3 x5 | %15
 G2 x6 | x6 |] %17
V:3
 G,2 | C2 G,2 E,2 F,2 | [F,A,]4 [E,G,]2 [C,C]2 | [F,C]3 [E,C] [E,D]2 [G,B,]2 | [C,C]6 [B,,D]2 | %5
 [A,,C]2 [B,,D]2 [C,C]2 [^C,_B,]2 | [D,A,]2 [C,^F,]2 [B,,G,]2 [C,G,]2 | %7
 [D,D]2 [D,C]2 [D,D]2 [D,C]2 | z2 [G,,G,]2 F,2 [E,G,]2 | [D,F]2 [C,E]2 [B,,D]2 [A,,C]2 | %10
 D3 z C [G,B,]2 [F,B,]2 | [E,G,]2 [E,G,]2 [C,C]2 [C,_B,]2 | [F,A,]6 [E,G,]2 | %13
 [D,F,]2 G,2 [E,G,]2 [C,G,]2 | A,4 [D,A,]2 [F,B,]2 | [E,C]2 [A,C]2 [D,D]2 [G,D]2 | %16
 !fermata![C,G,C]6 |] %17
V:4
 G,2 | C2 G,2 E,2 F,2 | x8 | x8 | x8 | x8 | x8 | x8 | [G,,B,]6 x2 | x8 | G,,2 D,2 x5 | x8 | x8 | %13
 x2 G,F, x4 | F,3 E, x4 | x8 | x6 |] %17

